src/images/brand.svg

<?xml version="1.0" encoding="utf-8"?>
<!-- Generator: Adobe Illustrator 21.1.0, SVG Export Plug-In . SVG Version: 6.00 Build 0)  -->
<!DOCTYPE svg PUBLIC "-//W3C//DTD SVG 1.1//EN" "http://www.w3.org/Graphics/SVG/1.1/DTD/svg11.dtd">
<svg version="1.1" id="Layer_1" xmlns="http://www.w3.org/2000/svg" xmlns:xlink="http://www.w3.org/1999/xlink" x="0px" y="0px"
	 viewBox="0 0 60 44" style="enable-background:new 0 0 60 44;" xml:space="preserve">
<style type="text/css">
	.st0{fill:#76C272;}
	.st1{fill:#014D70;}
	.st2{fill:#238FCA;}
	.st3{fill:#212833;}
</style>
<g>
	<path class="st0" d="M9.7,21.8c0.2-2.9,0.4-5.6,0.7-7.9c-4.5,2.9-7.5,5.8-8.7,8.3c-3,6,5.3,17.1,7.6,20l0-5.5
		C9.3,36,9.3,29.2,9.7,21.8z"/>
	<path class="st1" d="M15.9,3.4c-3.5,4.4-3.9,25.9-3.9,31.8l1.1-2.2c1-2.2,10.3-21.2,17.4-29.3C26,2.1,18.6,0.1,15.9,3.4z"/>
	<path class="st2" d="M57.3,17.1L57.1,16c-0.1-0.7-0.5-1.4-1-1.8c-0.8-0.7-1.8-0.7-2.9,0L21.7,33.1c5.1,1.2,30.1,6.7,35.1,3.2
		C60.5,33.7,58.5,23.3,57.3,17.1z"/>
	<path class="st3" d="M43.4,5c-3.1-2.6-5.7-3.4-7.8-2.3c-5.7,3-16.9,25.2-19.5,30.4l8.8-5.1l25.2-15C49.1,11.5,46.5,7.7,43.4,5z"/>
</g>
</svg>

<?xml version="1.0" encoding="UTF-8" standalone="no"?>
<!DOCTYPE svg PUBLIC "-//W3C//DTD SVG 1.1//EN" "http://www.w3.org/Graphics/SVG/1.1/DTD/svg11.dtd">
<svg width="100%" height="100%" viewBox="0 0 45 41" version="1.1" xmlns="http://www.w3.org/2000/svg" xmlns:xlink="http://www.w3.org/1999/xlink" xml:space="preserve" style="fill-rule:evenodd;clip-rule:evenodd;stroke-linejoin:round;stroke-miterlimit:1.41421;">
    <g id="Artboard1" transform="matrix(0.921448,0,0,0.93588,-0.195174,-0.139836)">
        <rect x="0.212" y="0.149" width="48.833" height="43.657" style="fill:none;"/>
        <clipPath id="_clip1">
            <rect x="0.212" y="0.149" width="48.833" height="43.657"/>
        </clipPath>
        <g clip-path="url(#_clip1)">
            <g transform="matrix(1.08525,0,0,1.06851,-0.8847,-1.39171)">
                <path d="M1.7,22.2C-1.3,28.2 7,39.3 9.3,42.2L9.3,36.7C9.3,36 9.3,29.2 9.7,21.8C9.9,18.9 10.1,16.2 10.4,13.9C5.9,16.8 2.9,19.7 1.7,22.2Z" style="fill:rgb(118,194,114);fill-rule:nonzero;"/>
                <path d="M15.9,3.4C12.4,7.8 12,29.3 12,35.2L13.1,33C14.1,30.8 23.4,11.8 30.5,3.7C26,2.1 18.6,0.1 15.9,3.4Z" style="fill:rgb(1,77,112);fill-rule:nonzero;"/>
                <path d="M21.7,33.1C25.2,33.9 38.2,36.8 47.6,37.4L47.6,17.6L21.7,33.1Z" style="fill:rgb(35,143,202);fill-rule:nonzero;"/>
                <path d="M43.4,5C40.3,2.4 37.7,1.6 35.6,2.7C29.9,5.7 18.7,27.9 16.1,33.1L24.9,28L47.6,14.5L47.6,9.5C46.4,8 45,6.4 43.4,5Z" style="fill:rgb(33,40,51);fill-rule:nonzero;"/>
            </g>
        </g>
    </g>
</svg>
